Origami/32x32/apps/google.svg

<svg width="32" height="32" version="1.1" viewBox="0 0 32 32" xmlns="http://www.w3.org/2000/svg">
 <circle cx="16" cy="17" r="14" style="opacity:.2"/>
 <circle cx="16" cy="16" r="14" style="fill:#d2d2d2"/>
 <path d="M 16.230469,6 C 11.922349,6 8.0835004,8.4798436 6.2050781,12.089844 5.4394168,13.569844 5,15.23 5,17 c 0,1.817829 0.4687079,3.524531 1.2734375,5.033203 l -0.00781,0.0059 C 8.164465,25.579062 11.963184,28 16.230469,28 19.058312,28 21.579676,26.929688 23.478516,25.179688 25.652994,23.169687 27,20.25 27,17 27,16.29 26.929148,15.67 26.806641,15 L 16,15 l 0,4 6.630859,0 c -0.418562,1.44 -1.286923,2.749609 -2.460937,3.599609 l 0.0078,0.0059 A 7,7 0 0 1 16,24 7,7 0 0 1 9.4804688,19.546875 7,7 0 0 1 9.4785156,19.541016 7,7 0 0 1 9,17 7,7 0 0 1 9.4628906,14.519531 7,7 0 0 1 16,10 a 7,7 0 0 1 4.708984,1.832031 l 2.91211,-2.8925779 C 21.701836,7.1194531 19.129773,6 16.230469,6 Z" style="opacity:.1"/>
 <path d="M 16 2 A 14 14 0 0 0 2 16 A 14 14 0 0 0 2.0215 16.586 A 14 14 0 0 1 16 3 A 14 14 0 0 1 29.979 16.414 A 14 14 0 0 0 30 16 A 14 14 0 0 0 16 2 z" style="fill:#ffffff;opacity:.2"/>
 <path d="m27 16c0-0.71-0.07146-1.33-0.193967-2h-10.806033v4h6.630627c-0.418562 1.44-1.286311 2.75-2.460325 3.6l3.308214 2.579688c2.174478-2.01 3.521484-4.929688 3.521484-8.179688" style="fill:#3779d7"/>
 <path d="M 16.230469 5 C 11.922349 5 8.0835004 7.4798438 6.2050781 11.089844 L 9.4609375 13.525391 A 7 7 0 0 1 16 9 A 7 7 0 0 1 20.708984 10.832031 L 23.621094 7.9394531 C 21.701836 6.1194531 19.129773 5 16.230469 5 z" style="fill:#e7453c"/>
 <path d="M 6.2050781 11.089844 C 5.4394168 12.569844 5 14.23 5 16 C 5 17.82 5.4688941 19.529063 6.2753906 21.039062 L 9.4804688 18.546875 A 7 7 0 0 1 9 16 A 7 7 0 0 1 9.4628906 13.519531 L 6.2050781 11.089844 z" style="fill:#eead33"/>
 <path d="m9.4785156 18.541016l-3.2128906 2.498046c1.89884 3.54 5.697559 5.960938 9.964844 5.960938 2.827843 0 5.349207-1.070312 7.248047-2.820312l-3.300782-2.574219a7 7 0 0 1 -4.177734 1.394531 7 7 0 0 1 -6.5214844 -4.458984z" style="fill:#359950"/>
</svg>

<svg xmlns="http://www.w3.org/2000/svg" width="32" height="32" version="1.1" viewBox="0 0 32 32">
 <circle style="opacity:0.2" cx="16" cy="17" r="14"/>
 <circle style="fill:#d2d2d2" cx="16" cy="16" r="14"/>
 <path style="opacity:0.1" d="M 16.230469,6 C 11.922349,6 8.0835004,8.4798436 6.2050781,12.089844 5.4394168,13.569844 5,15.23 5,17 c 0,1.817829 0.4687079,3.524531 1.2734375,5.033203 l -0.00781,0.0059 C 8.164465,25.579062 11.963184,28 16.230469,28 19.058312,28 21.579676,26.929688 23.478516,25.179688 25.652994,23.169687 27,20.25 27,17 27,16.29 26.929148,15.67 26.806641,15 L 16,15 l 0,4 6.630859,0 c -0.418562,1.44 -1.286923,2.749609 -2.460937,3.599609 l 0.0078,0.0059 A 7,7 0 0 1 16,24 7,7 0 0 1 9.4804688,19.546875 7,7 0 0 1 9.4785156,19.541016 7,7 0 0 1 9,17 7,7 0 0 1 9.4628906,14.519531 7,7 0 0 1 16,10 a 7,7 0 0 1 4.708984,1.832031 l 2.91211,-2.8925779 C 21.701836,7.1194531 19.129773,6 16.230469,6 Z"/>
 <path style="opacity:0.2;fill:#ffffff" d="M 16 2 A 14 14 0 0 0 2 16 A 14 14 0 0 0 2.0215 16.586 A 14 14 0 0 1 16 3 A 14 14 0 0 1 29.979 16.414 A 14 14 0 0 0 30 16 A 14 14 0 0 0 16 2 z"/>
 <path style="fill:#3779d7" d="m 27,16 c 0,-0.71 -0.07146,-1.33 -0.193967,-2 L 16,14 l 0,4 6.630627,0 c -0.418562,1.44 -1.286311,2.75 -2.460325,3.6 l 3.308214,2.579688 C 25.652994,22.169688 27,19.25 27,16"/>
 <path style="fill:#e7453c" d="M 16.230469 5 C 11.922349 5 8.0835004 7.4798438 6.2050781 11.089844 L 9.4609375 13.525391 A 7 7 0 0 1 16 9 A 7 7 0 0 1 20.708984 10.832031 L 23.621094 7.9394531 C 21.701836 6.1194531 19.129773 5 16.230469 5 z"/>
 <path style="fill:#eead33" d="M 6.2050781 11.089844 C 5.4394168 12.569844 5 14.23 5 16 C 5 17.82 5.4688941 19.529063 6.2753906 21.039062 L 9.4804688 18.546875 A 7 7 0 0 1 9 16 A 7 7 0 0 1 9.4628906 13.519531 L 6.2050781 11.089844 z"/>
 <path style="fill:#359950" d="M 9.4785156 18.541016 L 6.265625 21.039062 C 8.164465 24.579062 11.963184 27 16.230469 27 C 19.058312 27 21.579676 25.929688 23.478516 24.179688 L 20.177734 21.605469 A 7 7 0 0 1 16 23 A 7 7 0 0 1 9.4785156 18.541016 z"/>
</svg>
